X:1
T:The Way of the Cross
T:The Way of the Cross
T:Ada Rose Gibbs (1864-1905)
T:Mary E. Maxwell
T:Public Domain Courtesy of the Cyber Hymnal™
T:Public Domain Courtesy of the Cyber Hymnal™
C:Ada Rose Gibbs (1864-1905)
Z:Public Domain
Z:Courtesy of the Cyber Hymnal™
%%score ( 1 2 ) ( 3 4 )
L:1/8
Q:1/4=95
M:4/4
K:A
V:1 treble 
V:2 treble 
V:3 bass 
V:4 bass 
V:1
 ([Ac][Ac]) | [Ac]2 ([Ac][Ac]) [Ad]2 ([Ac][Ac]) | [Gc]2 [GB]2 [FA]2 (AA) | %3
w: 1~The *|way of~the * cross means *|sac- ri- fice, As~to *|
w: 2.~As~the *|voice of * song and *|prayer we raise, How *|
w: 3.~Do *|you falter * then, or, *|true to death, Just *|
w: 4.~’Tis~the *|place of * life— for~you *|die to live, One~with *|
 ([Ad][Ad]) ([Ad][Ad]) [FA]2 ([FB][FB]) | [Ec]6 [Ec][Ec] | [Ac]2 ([EB]A) [Ad]2 (F[FA]) | %6
w: God * you * yield your *|all; To be|laid on~the * al- tar,~the *|
w: easy * to * say, “We~give *|all!” Till some|rough- er * cross lies *|
w: die * on~the * cross in~the *|way, Till the|full- ness~of * life from~the *|
w: Je- * sus * cru- ci- *|fied; With the|life a- * lone to~be *|
 [FA]2 [E=G]2 [DF]2 ([DF][DF]) | [CE]2 ([CA][CG]) [DF]2 [DF]2 | (B4 E2) ||"^Refrain" [DE][DE] | %10
w: place of death, Where *|fire will * sure- ly|fall. *||
w: just be- fore, And *|stern- er * is~du- ty’s|call. *||
w: Liv- ing One Is *|fill- ing~you * day by|day? *||
w: lived thro’ you, Of~the *|ris- en,~the * glo- ri-|fied! *||
 [CA]2 [DB][Ec] [DF]2 [DF][DF] | [FB]2 [Fc][Fd] [EG]2 [EG][EG] | [^Ec]2 [EG][EB] [FA]2 [EG]F | %13
w: |||
w: |||
w: |||
w: |||
 c6 [=Ec][Ec] | [Fd]2 [Fc][Fd] [GB]2 [GB]2 | [^Ec]2 (Bc) [FA]2 [FA]2 | [Fc]2 [FB]F [EA]2 [EG]2 | %17
w: ||||
w: ||||
w: ||||
w: ||||
 [EA]6 |] %18
w: |
w: |
w: |
w: |
V:2
 x2 | x8 | x6 AA | x8 | x8 | x3 A x F x2 | x8 | x8 | D6 || x2 | x8 | x8 | x7 F | (G4 ^E2) x2 | x8 | %15
 x2 ^E2 x4 | x3 F x4 | x6 |] %18
V:3
 ([A,E][A,E]) | [A,E]2 ([A,E][A,E]) [A,F]2 ([A,E][A,E]) | [E,E]2 [E,D]2 [F,C]2 ([F,C][F,C]) | %3
w: ~ *|~ ~ * ~ ~ *|~ ~ ~ ~ *|
 ([D,F][D,F]) ([D,F][D,F]) [D,D]2 ([D,D][D,D]) | [A,C]6 [A,C][A,C] | %5
w: ~ * ~ * ~ ~ *|~ ~ ~|
 [=G,E]2 ([G,E][G,E]) D2 ([D,A,][D,A,]) | [C,A,]2 [C,A,]2 [D,A,]2 ([D,A,][D,A,]) | %7
w: ~ ~ * ~ ~ *|~ ~ ~ ~ *|
 [E,A,]2 ([E,A,][E,A,]) [E,B,]2 [E,B,]2 | [E,B,]6 || [E,B,][E,B,] | A,2 A,A, [D,A,]2 [D,A,][D,A,] | %11
w: ~ ~ * ~ ~|~|’Tis the|way of the cross! are you|
 [B,,D]2 [B,,D][B,,D] [E,B,]2 [D,B,][D,B,] | [C,C]2 [C,C][C,C] [F,C]2 [F,B,][F,A,] | %13
w: will- ing for this? What does|bear- ing the cross mean to|
 (A,4 G,2) [C,G,][C,G,] | [B,,B,]2 [B,,B,][B,,B,] [E,B,]2 [E,B,]2 | [C,C]2 [C,C]2 [F,C]2 [F,C]2 | %16
w: you? * You who’ve|giv- en your- self, your|all, to God! To|
 [B,,D]2 [B,,D][B,,D] [E,C]2 [E,B,]2 | [A,C]6 |] %18
w: God are you whol- ly|true?|
V:4
 x2 | x8 | x8 | x8 | x8 | x4 (F,E,) x2 | x8 | x8 | x6 || x2 | A,2 A,A, x4 | x8 | x8 | C,6 x2 | x8 | %15
 x8 | x8 | x6 |] %18

